tenants/vtwonen/icons/direction_right.svg

<svg fill="none" height="24" viewBox="0 0 24 24" width="24" xmlns="http://www.w3.org/2000/svg"><path d="m7.4372 2.1576-.29205.31697c-.19353.21009-.19353.55073 0 .76086l8.07415 8.76457-8.07415 8.7646c-.19353.2101-.19353.5507 0 .7609l.29205.3169c.19354.2101.50735.2101.70089 0l8.71671-9.462c.1936-.2101.1936-.5507 0-.7608l-8.71671-9.462c-.19354-.21013-.50735-.21013-.70089 0z" fill="#000"/></svg>

<svg width="24" height="24" viewBox="0 0 24 24" fill="none" xmlns="http://www.w3.org/2000/svg">
<path d="M7.4372 2.1576L7.14515 2.47457C6.95162 2.68466 6.95162 3.0253 7.14515 3.23543L15.2193 12L7.14515 20.7646C6.95162 20.9747 6.95162 21.3153 7.14515 21.5255L7.4372 21.8424C7.63074 22.0525 7.94455 22.0525 8.13809 21.8424L16.8548 12.3804C17.0484 12.1703 17.0484 11.8297 16.8548 11.6196L8.13809 2.1576C7.94455 1.94747 7.63074 1.94747 7.4372 2.1576Z" fill="black"/>
</svg>
